<?xml version="1.0" encoding="UTF-8"?>
<map version="1.10" tiledversion="1.12.1-8-g449813058" orientation="orthogonal" renderorder="right-down" width="20" height="30" tilewidth="32" tileheight="32" infinite="0" nextlayerid="8" nextobjectid="189">
 <tileset firstgid="1" source="meble.tsx"/>
 <tileset firstgid="5" source="szkola.tsx"/>
 <layer id="1" name="Tile Layer 1" width="20" height="30" offsetx="0.947961" offsety="-5.68434e-14">
  <data encoding="csv">
5,6,6,6,6,6,7,5,6,18,19,6,7,5,6,6,6,6,6,7,
10,11,11,11,11,11,12,10,11,11,11,11,12,10,11,11,11,11,11,12,
10,11,11,11,11,11,12,10,11,11,11,11,12,10,11,11,11,11,11,12,
10,11,11,11,11,11,13,14,11,11,11,11,13,14,11,11,11,11,11,12,
10,11,11,11,11,11,11,11,11,11,11,11,11,11,11,11,11,11,11,12,
10,11,11,11,11,11,8,9,11,11,11,11,8,9,11,11,11,11,11,12,
10,11,11,11,11,8,17,10,11,11,11,11,12,15,16,16,16,16,16,17,
15,16,16,16,16,17,5,14,11,11,11,11,12,5,6,6,6,6,6,7,
0,5,6,6,6,6,14,11,11,11,11,11,12,10,11,11,11,11,11,12,
5,14,11,11,11,11,11,11,11,11,11,11,12,10,11,11,11,11,11,12,
10,11,11,11,11,11,11,11,11,11,11,11,13,14,11,11,11,11,11,12,
10,11,11,11,11,11,11,11,11,11,11,11,11,11,11,11,11,11,11,12,
10,11,11,11,11,11,11,11,11,11,11,11,8,16,16,16,16,16,16,17,
15,9,11,11,11,11,11,11,11,11,11,11,12,5,6,6,6,6,6,7,
0,15,16,16,16,16,9,11,11,11,11,11,12,10,11,11,11,11,11,12,
5,6,6,6,6,7,15,9,11,11,11,11,12,10,11,11,11,11,11,12,
10,11,11,11,11,13,6,14,11,11,11,11,13,14,11,11,11,11,11,12,
10,11,11,11,11,11,11,11,11,11,11,11,11,11,11,11,11,11,11,12,
10,11,11,11,11,11,8,9,11,11,11,11,8,9,11,11,11,11,11,12,
10,11,11,11,11,11,12,10,11,11,11,11,12,10,11,11,11,11,11,12,
10,11,11,11,11,11,12,10,11,11,11,11,12,10,11,11,11,11,11,12,
15,16,16,16,16,16,17,10,11,11,11,11,12,15,16,16,16,16,16,17,
0,0,0,0,0,0,0,10,11,11,11,11,12,0,0,0,0,0,0,0,
0,0,0,0,0,0,0,10,11,11,11,11,12,0,0,0,0,0,0,0,
0,0,0,5,6,6,6,6,11,11,11,11,12,0,0,0,0,0,0,0,
0,0,0,10,11,11,11,11,11,11,11,11,12,0,0,0,0,0,0,0,
0,0,0,10,11,11,8,9,11,11,11,11,12,0,0,0,0,0,0,0,
0,0,0,10,11,11,12,10,11,11,11,11,12,0,0,0,0,0,0,0,
0,0,0,10,11,11,12,10,11,11,11,11,12,0,0,0,0,0,0,0,
0,0,0,15,16,16,17,15,9,11,11,8,17,0,0,0,0,0,0,0
</data>
 </layer>
 <objectgroup id="7" name="krzesla">
  <object id="114" gid="2" x="466" y="480" width="32" height="32"/>
  <object id="115" gid="2" x="500" y="483" width="32" height="32"/>
  <object id="116" gid="2" x="537.75" y="483.75" width="32" height="32"/>
  <object id="117" gid="2" x="569.75" y="479.25" width="32" height="32"/>
  <object id="118" gid="2" x="467.25" y="519.75" width="32" height="32"/>
  <object id="119" gid="2" x="499.25" y="518.75" width="32" height="32"/>
  <object id="120" gid="2" x="538" y="519" width="32" height="32"/>
  <object id="121" gid="2" x="566.25" y="519.5" width="32" height="32"/>
  <object id="122" gid="2" x="467.5" y="600.5" width="32" height="32"/>
  <object id="123" gid="2" x="499.25" y="604.75" width="32" height="32"/>
  <object id="124" gid="2" x="529.5" y="606.5" width="32" height="32"/>
  <object id="125" gid="2" x="570.75" y="605.5" width="32" height="32"/>
  <object id="126" gid="2" x="566.25" y="580" width="32" height="32"/>
  <object id="127" gid="2" x="532.5" y="576.5" width="32" height="32"/>
  <object id="128" gid="2" x="499.25" y="580.75" width="32" height="32"/>
  <object id="129" gid="2" x="469" y="577" width="32" height="32"/>
  <object id="130" gid="2" x="464.5" y="548.25" width="32" height="32"/>
  <object id="131" gid="2" x="500.75" y="549.5" width="32" height="32"/>
  <object id="132" gid="2" x="533" y="549.5" width="32" height="32"/>
  <object id="133" gid="2" x="567" y="549.5" width="32" height="32"/>
  <object id="134" gid="3" x="56.75" y="573.75" width="32" height="32"/>
  <object id="135" gid="3" x="65" y="583.75" width="32" height="32"/>
  <object id="139" gid="2" x="54.5" y="631.5" width="32" height="32"/>
  <object id="140" gid="3" x="63.5" y="613.75" width="32" height="32"/>
  <object id="141" gid="2" x="31.25" y="536.25" width="32" height="32"/>
  <object id="142" gid="2" x="64.5" y="537.75" width="32" height="32"/>
  <object id="143" gid="2" x="115.75" y="528.75" width="32" height="32"/>
  <object id="145" gid="4" x="173.25" y="644.25" width="32" height="32"/>
  <object id="146" gid="4" x="139.5" y="540.25" width="32" height="32"/>
  <object id="147" gid="3" x="21.75" y="677.25" width="32" height="32"/>
  <object id="151" gid="2" x="166.75" y="670" width="32" height="32"/>
  <object id="153" gid="2" x="458.5" y="58.5" width="32" height="32"/>
  <object id="154" gid="2" x="490.25" y="59.5" width="32" height="32"/>
  <object id="155" gid="2" x="518.25" y="57.5" width="32" height="32"/>
  <object id="156" gid="2" x="548.5" y="59.75" width="32" height="32"/>
  <object id="157" gid="2" x="577.25" y="57.5" width="32" height="32"/>
  <object id="158" gid="2" x="456.75" y="97.25" width="32" height="32"/>
  <object id="159" gid="2" x="490.25" y="96.75" width="32" height="32"/>
  <object id="160" gid="2" x="522.5" y="96.25" width="32" height="32"/>
  <object id="161" gid="2" x="556.5" y="87.25" width="32" height="32"/>
  <object id="162" gid="2" x="583.75" y="94.75" width="32" height="32"/>
  <object id="163" gid="2" x="561.75" y="131.75" width="32" height="32"/>
  <object id="164" gid="2" x="586.25" y="129.25" width="32" height="32"/>
  <object id="165" gid="2" x="528.5" y="130.25" width="32" height="32"/>
  <object id="166" gid="2" x="492.75" y="132.25" width="32" height="32"/>
  <object id="167" gid="2" x="462.5" y="129" width="32" height="32"/>
  <object id="168" gid="2" x="32.25" y="51" width="32" height="32"/>
  <object id="169" gid="2" x="75.5" y="65" width="32" height="32"/>
  <object id="170" gid="2" x="109.5" y="63" width="32" height="32"/>
  <object id="171" gid="2" x="147.75" y="62.25" width="32" height="32"/>
  <object id="172" gid="2" x="148.25" y="98.75" width="32" height="32"/>
  <object id="173" gid="2" x="110.25" y="99.25" width="32" height="32"/>
  <object id="174" gid="2" x="79" y="101.75" width="32" height="32"/>
  <object id="175" gid="2" x="36.75" y="100" width="32" height="32"/>
  <object id="176" gid="2" x="40.75" y="135.25" width="32" height="32"/>
  <object id="177" gid="2" x="67.25" y="139" width="32" height="32"/>
  <object id="178" gid="2" x="101" y="136" width="32" height="32"/>
  <object id="179" gid="2" x="134.5" y="135.25" width="32" height="32"/>
  <object id="180" gid="2" x="118.5" y="173.5" width="32" height="32"/>
  <object id="181" gid="2" x="80.75" y="173" width="32" height="32"/>
  <object id="182" gid="2" x="42" y="171.5" width="32" height="32"/>
  <object id="183" gid="2" x="155.5" y="172.25" width="32" height="32"/>
 </objectgroup>
 <objectgroup id="6" name="biurka">
  <object id="31" gid="1" x="467.333" y="485.333" width="32" height="32"/>
  <object id="47" gid="1" x="501" y="485.667" width="32" height="32"/>
  <object id="48" gid="1" x="537.333" y="486.667" width="32" height="32"/>
  <object id="49" gid="1" x="569.333" y="486.667" width="32" height="32"/>
  <object id="50" gid="1" x="466.667" y="520.333" width="32" height="32"/>
  <object id="51" gid="1" x="499" y="520.333" width="32" height="32"/>
  <object id="52" gid="1" x="535.667" y="520.333" width="32" height="32"/>
  <object id="53" gid="1" x="568.333" y="520.333" width="32" height="32"/>
  <object id="54" gid="1" x="466.333" y="551" width="32" height="32"/>
  <object id="55" gid="1" x="498.333" y="551" width="32" height="32"/>
  <object id="56" gid="1" x="533" y="551.333" width="32" height="32"/>
  <object id="57" gid="1" x="566.333" y="551" width="32" height="32"/>
  <object id="58" gid="1" x="467.333" y="581.333" width="32" height="32"/>
  <object id="59" gid="1" x="498.333" y="581.667" width="32" height="32"/>
  <object id="60" gid="1" x="531.667" y="581" width="32" height="32"/>
  <object id="61" gid="1" x="566.333" y="581.333" width="32" height="32"/>
  <object id="62" gid="1" x="466.333" y="611.333" width="32" height="32"/>
  <object id="63" gid="1" x="498.333" y="611" width="32" height="32"/>
  <object id="64" gid="1" x="531.667" y="611.333" width="32" height="32"/>
  <object id="65" gid="1" x="566.667" y="612" width="32" height="32"/>
  <object id="68" gid="1" x="61" y="539" width="32" height="32"/>
  <object id="70" gid="1" x="30" y="541" width="32" height="32"/>
  <object id="71" gid="1" x="44" y="549" width="32" height="32"/>
  <object id="73" gid="1" x="58" y="659" width="32" height="32"/>
  <object id="74" gid="1" x="29" y="654" width="32" height="32"/>
  <object id="75" gid="1" x="39" y="669" width="32" height="32"/>
  <object id="76" gid="1" x="141" y="664" width="32" height="32"/>
  <object id="77" gid="1" x="166" y="651" width="32" height="32"/>
  <object id="80" gid="1" x="160" y="671" width="32" height="32"/>
  <object id="81" gid="1" x="119" y="533" width="32" height="32"/>
  <object id="82" gid="1" x="101" y="661" width="32" height="32"/>
  <object id="83" gid="1" x="458" y="61" width="32" height="32"/>
  <object id="84" gid="1" x="488" y="61" width="32" height="32"/>
  <object id="85" gid="1" x="518" y="60" width="32" height="32"/>
  <object id="86" gid="1" x="549" y="61" width="32" height="32"/>
  <object id="87" gid="1" x="576" y="60" width="32" height="32"/>
  <object id="88" gid="1" x="459" y="97" width="32" height="32"/>
  <object id="89" gid="1" x="489" y="98" width="32" height="32"/>
  <object id="90" gid="1" x="523" y="100" width="32" height="32"/>
  <object id="91" gid="1" x="556" y="100" width="32" height="32"/>
  <object id="92" gid="1" x="583" y="96" width="32" height="32"/>
  <object id="93" gid="1" x="462" y="130" width="32" height="32"/>
  <object id="94" gid="1" x="494" y="134" width="32" height="32"/>
  <object id="95" gid="1" x="528" y="132" width="32" height="32"/>
  <object id="96" gid="1" x="561" y="135" width="32" height="32"/>
  <object id="97" gid="1" x="586" y="132" width="32" height="32"/>
  <object id="98" gid="1" x="38" y="63" width="32" height="32"/>
  <object id="99" gid="1" x="75" y="67" width="32" height="32"/>
  <object id="100" gid="1" x="109" y="65" width="32" height="32"/>
  <object id="101" gid="1" x="148" y="65" width="32" height="32"/>
  <object id="102" gid="1" x="38" y="101" width="32" height="32"/>
  <object id="103" gid="1" x="76" y="103" width="32" height="32"/>
  <object id="104" gid="1" x="110" y="101" width="32" height="32"/>
  <object id="105" gid="1" x="147" y="100" width="32" height="32"/>
  <object id="106" gid="1" x="40" y="138" width="32" height="32"/>
  <object id="107" gid="1" x="67" y="139" width="32" height="32"/>
  <object id="108" gid="1" x="101" y="140" width="32" height="32"/>
  <object id="109" gid="1" x="135" y="138" width="32" height="32"/>
  <object id="110" gid="1" x="43" y="174" width="32" height="32"/>
  <object id="111" gid="1" x="81" y="175" width="32" height="32"/>
  <object id="112" gid="1" x="117" y="174" width="32" height="32"/>
  <object id="113" gid="1" x="155" y="174" width="32" height="32"/>
 </objectgroup>
</map>
